jekyll/assets/img/favicon-blur.svg

<svg width="16" height="16" viewBox="0 0 16 16" fill="none" xmlns="http://www.w3.org/2000/svg">
  <style>
    path#hand {
      fill: #FCEA2B;
    }
    @media (prefers-color-scheme: dark) {
      path#hand {
        fill: white;
      }
    }
  </style>
  <path id="hand" d="M9.74778 12.401L10.5937 12.8295C11.5021 13.1297 11.9432 11.1787 10.4829 10.5269L10.0211 10.217L10.7928 10.5269C11.6619 10.9353 12.6752 8.99044 10.9134 8.13848L10.2123 7.99999L11.4419 8.13848C12.2069 8.59054 12.3437 6.64008 11.144 6.07104L7.2305 5.28803C7.50763 2.6091 7.72317 0.884729 5.73707 0.530618C5.13054 0.438241 4.38221 0.530618 4.53617 1.14646C5.33677 4.74916 3.76636 6.71475 3.32995 7.17062C1.55668 8.94389 1.55668 11.8189 3.32995 13.5922C4.09993 14.3153 4.8473 14.264 6.72242 14.264C7.07654 14.264 11.5508 15.3678 11.5508 15.3678C13.2444 15.8142 14.1738 13.9951 13.0345 13.6102L12.6576 13.3518"/>
  <path d="M10.6859 8.30144C12.1286 8.66476 12.9717 6.4351 10.8866 6.00295L7.2305 5.28803C7.50763 2.6091 7.72317 0.884729 5.73707 0.530618C5.13054 0.438241 4.38221 0.530618 4.53617 1.14646C5.33677 4.74916 3.76636 6.71475 3.32995 7.17062C1.55668 8.94389 1.55668 11.8189 3.32995 13.5922C4.09993 14.3153 4.8473 14.264 6.72242 14.264C7.07654 14.264 11.8051 15.4295 11.8051 15.4295C13.4986 15.876 14.0148 14.0705 12.8755 13.6856L11.8051 13.2996M10.6859 8.30144C12.469 8.70341 11.9179 10.9044 10.4829 10.5269M10.6859 8.30144L9.66765 8.09358M10.4829 10.5269C11.9356 10.922 11.6004 13.18 10.1649 12.793L8.76248 12.403M10.4829 10.5269L9.24441 10.1741" stroke="black" stroke-width="0.8" stroke-miterlimit="10" stroke-linecap="round" stroke-linejoin="round"/>
</svg>

<svg width="16" height="16" fill="none" xmlns="http://www.w3.org/2000/svg"><style>path#hand{fill:#fcea2b}@media (prefers-color-scheme:dark){path#hand{fill:#fff}}</style><path id="hand" d="M9.748 12.401l.846.428c.908.3 1.35-1.65-.111-2.302l-.462-.31.772.31c.869.408 1.882-1.537.12-2.389l-.7-.138 1.229.138c.765.453.902-1.498-.298-2.067l-3.913-.783C7.508 2.609 7.723.885 5.737.531c-.606-.093-1.355 0-1.2.615.8 3.603-.77 5.569-1.207 6.025a4.54 4.54 0 0 0 0 6.421c.77.723 1.517.672 3.392.672.355 0 4.829 1.104 4.829 1.104 1.693.446 2.623-1.373 1.483-1.758l-.376-.258"/><path d="M10.686 8.301c1.443.364 2.286-1.866.2-2.298l-3.655-.715C7.508 2.609 7.723.885 5.737.531c-.606-.093-1.355 0-1.2.615.8 3.603-.77 5.569-1.207 6.025a4.54 4.54 0 0 0 0 6.421c.77.723 1.517.672 3.392.672.355 0 5.083 1.166 5.083 1.166 1.694.446 2.21-1.36 1.07-1.744l-1.07-.386M10.685 8.3c1.784.402 1.233 2.603-.202 2.226m.203-2.226l-1.018-.207m.815 2.433c1.453.395 1.117 2.653-.318 2.266l-1.403-.39m1.72-1.876l-1.238-.353" stroke="#000" stroke-width=".8" stroke-miterlimit="10" stroke-linecap="round" stroke-linejoin="round"/></svg>
